X: 134
T:Cottage in the Grove, The
T:Tommy Coen's
M:C|
L:1/8
R:reel
N:Also played in Ador. See also "The Crosses of Annagh", #477
D:De Danann: The Mist Covered Mountain
D:Music at Matt Molloy's
Z:id:hn-reel-227
K:Edor
EDB,A, B,EFA|B2eB dBAF|D2DF E2DB,|A,DFD EDB,A,|
B,E~E2 DEFA|B2eB dBAF|DEFA dBAF|1 DEFD E2EF:|2 DEFD E2EA||
|:Be~e2 fedB|eBfe dBAF|~A3B d2fd|edef d2BA|
Be~e2 fedB|e2fe dBAF|DEFA dBAF|1 DEFD E2EA:|2 DEFD E2EF||
